X:1504
T:Smoky House, The
R:reel
N:"collected from Stack"
B:"O'Neill's Dance Music of Ireland, 1504"
T: an tea.c toitea.c.
Z:transcribed by John B. Walsh, walsh@math.ubc.ca 8/23/96
M:C|
L:1/8
K:Am
(AB)|cAeA cAeA|BGGA BcdB|cAeA cAeA|dBGB A2 (AB)|
cAeA cAeA|BGGA BcdB|cBAB cde^f|gedB A2||
(ab)|c'bag age^f|gedc BGGb|c'bag aged|((3e^fg) ab a2 (ab)|
c'ba^f gbaf|gedc BG G2|ABcd ede^f|gedB A2||


